flaticon/user-interface/browser-7.svg

<svg xmlns="http://www.w3.org/2000/svg" width="32" height="32" viewBox="0 0 24 24">
    <path d="M2.800781 1.199219C1.917969 1.199219 1.199219 1.917969 1.199219 2.800781 1.199219 3.683594 1.917969 4.398438 2.800781 4.398438 3.683594 4.398438 4.398438 3.683594 4.398438 2.800781 4.398438 1.917969 3.683594 1.199219 2.800781 1.199219zM2.800781 3.601562C2.359375 3.601562 2 3.242188 2 2.800781 2 2.359375 2.359375 2 2.800781 2 3.242188 2 3.601562 2.359375 3.601562 2.800781 3.601562 3.242188 3.242188 3.601562 2.800781 3.601562zM6.398438 1.199219C5.519531 1.199219 4.800781 1.917969 4.800781 2.800781 4.800781 3.683594 5.519531 4.398438 6.398438 4.398438 7.28125 4.398438 8 3.683594 8 2.800781 8 1.917969 7.28125 1.199219 6.398438 1.199219zM6.398438 3.601562C5.957031 3.601562 5.601562 3.242188 5.601562 2.800781 5.601562 2.359375 5.957031 2 6.398438 2 6.839844 2 7.199219 2.359375 7.199219 2.800781 7.199219 3.242188 6.839844 3.601562 6.398438 3.601562zM10 1.199219C9.117188 1.199219 8.398438 1.917969 8.398438 2.800781 8.398438 3.683594 9.117188 4.398438 10 4.398438 10.882812 4.398438 11.601562 3.683594 11.601562 2.800781 11.601562 1.917969 10.882812 1.199219 10 1.199219zM10 3.601562C9.558594 3.601562 9.199219 3.242188 9.199219 2.800781 9.199219 2.359375 9.558594 2 10 2 10.441406 2 10.800781 2.359375 10.800781 2.800781 10.800781 3.242188 10.441406 3.601562 10 3.601562zM10 3.601562"/>
    <path d="M 0 0 L 0 24 L 24 24 L 24 0 Z M 0.800781 0.800781 L 23.199219 0.800781 L 23.199219 4.800781 L 0.800781 4.800781 Z M 23.199219 23.199219 L 0.800781 23.199219 L 0.800781 5.601562 L 23.199219 5.601562 Z M 23.199219 23.199219"/>
    <path d="M7.601562 7.199219L2 7.199219 2 13.601562 7.601562 13.601562zM6.800781 12.800781L2.800781 12.800781 2.800781 8 6.800781 8zM14.800781 7.199219L9.199219 7.199219 9.199219 13.601562 14.800781 13.601562zM14 12.800781L13.199219 12.800781C13.199219 12.578125 13.019531 12.398438 12.800781 12.398438 12.578125 12.398438 12.398438 12.578125 12.398438 12.800781L10.800781 12.800781C10.800781 12.578125 10.621094 12.398438 10.398438 12.398438 10.179688 12.398438 10 12.578125 10 12.800781L10 8C10 8.222656 10.179688 8.398438 10.398438 8.398438 10.621094 8.398438 10.800781 8.222656 10.800781 8L12.398438 8C12.398438 8.222656 12.578125 8.398438 12.800781 8.398438 13.019531 8.398438 13.199219 8.222656 13.199219 8L14 8 14 8.800781C13.777344 8.800781 13.601562 8.980469 13.601562 9.199219 13.601562 9.421875 13.777344 9.601562 14 9.601562L14 11.199219C13.777344 11.199219 13.601562 11.378906 13.601562 11.601562 13.601562 11.820312 13.777344 12 14 12zM22 7.199219L16.398438 7.199219 16.398438 13.601562 22 13.601562zM21.199219 12.800781L17.199219 12.800781 17.199219 8 21.199219 8zM7.601562 21.601562L7.601562 15.199219 2 15.199219 2 21.601562zM2.800781 16L6.800781 16 6.800781 20.800781 2.800781 20.800781zM14.800781 15.199219L9.199219 15.199219 9.199219 21.601562 14.800781 21.601562zM14 20.800781L10 20.800781 10 16 14 16zM22 15.199219L16.398438 15.199219 16.398438 21.601562 22 21.601562zM21.199219 20.800781L17.199219 20.800781 17.199219 16 21.199219 16zM21.199219 20.800781"/>
    <path d="M13.199219 10.398438C13.199219 10.621094 13.019531 10.800781 12.800781 10.800781 12.578125 10.800781 12.398438 10.621094 12.398438 10.398438 12.398438 10.179688 12.578125 10 12.800781 10 13.019531 10 13.199219 10.179688 13.199219 10.398438zM12 9.199219C12 9.421875 11.820312 9.601562 11.601562 9.601562 11.378906 9.601562 11.199219 9.421875 11.199219 9.199219 11.199219 8.980469 11.378906 8.800781 11.601562 8.800781 11.820312 8.800781 12 8.980469 12 9.199219zM10.800781 10.398438C10.800781 10.621094 10.621094 10.800781 10.398438 10.800781 10.179688 10.800781 10 10.621094 10 10.398438 10 10.179688 10.179688 10 10.398438 10 10.621094 10 10.800781 10.179688 10.800781 10.398438zM12 11.601562C12 11.820312 11.820312 12 11.601562 12 11.378906 12 11.199219 11.820312 11.199219 11.601562 11.199219 11.378906 11.378906 11.199219 11.601562 11.199219 11.820312 11.199219 12 11.378906 12 11.601562zM12 11.601562"/>
</svg>

<svg xmlns="http://www.w3.org/2000/svg" width="32" height="32" viewBox="0 0 24 24">
    <path d="M2.8 1.2c-.882 0-1.6.718-1.6 1.6a1.6 1.6 0 1 0 1.6-1.6zm0 2.402A.802.802 0 0 1 2.8 2a.802.802 0 0 1 0 1.602zm0 0M6.398 1.2A1.6 1.6 0 1 0 8 2.801c0-.884-.719-1.603-1.602-1.603zm0 2.402a.799.799 0 0 1-.796-.801.799.799 0 1 1 1.597 0c0 .441-.36.8-.8.8zm0 0M10 1.2c-.883 0-1.602.718-1.602 1.6A1.6 1.6 0 0 0 10 4.399a1.6 1.6 0 0 0 1.602-1.597c0-.883-.72-1.602-1.602-1.602zm0 2.402A.802.802 0 0 1 10 2a.802.802 0 0 1 0 1.602zm0 0"/>
    <path d="M0 0v24h24V0zm.8.8h22.4v4H.8zm22.4 22.4H.8V5.601h22.4zm0 0"/>
    <path d="M7.602 7.2H2v6.402h5.602zM6.8 12.8h-4V8h4zm0 0M14.8 7.2H9.2v6.402h5.6zm-.8 5.6h-.8a.401.401 0 1 0-.802 0h-1.597a.401.401 0 0 0-.8 0L9.999 8c0 .223.18.398.398.398A.398.398 0 0 0 10.801 8h1.597c0 .223.18.398.403.398A.398.398 0 0 0 13.199 8H14v.8a.398.398 0 0 0-.398.4c0 .222.175.402.398.402v1.597a.398.398 0 0 0-.398.403c0 .218.175.398.398.398zm0 0M22 7.2h-5.602v6.402H22zm-.8 5.6h-4V8h4zm0 0M7.602 21.602v-6.403H2v6.403zM2.8 16h4v4.8h-4zm0 0M14.8 15.2H9.2v6.402h5.6zm-.8 5.6h-4V16h4zm0 0M22 15.2h-5.602v6.402H22zm-.8 5.6h-4V16h4zm0 0"/>
    <path d="M13.2 10.398a.401.401 0 1 1-.803.003.401.401 0 0 1 .802-.003zm0 0M12 9.2a.401.401 0 1 1-.802.002.401.401 0 0 1 .802-.003zm0 0M10.8 10.398a.401.401 0 1 1 0 0zm0 0M12 11.602a.4.4 0 1 1-.8-.004.4.4 0 0 1 .8.004zm0 0"/>
</svg>
